src/assets/icons/at.svg

<svg width="14" height="14" viewBox="0 0 14 14" fill="none" xmlns="http://www.w3.org/2000/svg">
<g id="at">
<g clip-path="url(#clip0_156_4690)">
<path id="Vector" fill-rule="evenodd" clip-rule="evenodd" d="M1.2 7C1.2 3.79537 3.79537 1.2 7 1.2C9.64528 1.2 11.0427 2.10144 11.8088 3.19357C12.6031 4.32589 12.8 5.77603 12.8 7V8.104C12.8 8.74864 12.2766 9.27202 11.632 9.27202C10.9874 9.27202 10.464 8.74863 10.464 8.104V7.23763C10.4693 7.15909 10.472 7.07984 10.472 6.99995C10.472 6.92007 10.4693 6.84081 10.464 6.76227V4.12798C10.464 3.79661 10.1954 3.52798 9.86399 3.52798C9.53262 3.52798 9.26399 3.79661 9.26399 4.12798V4.36754C8.65612 3.84425 7.865 3.52793 7 3.52793C5.08246 3.52793 3.528 5.08243 3.528 6.99995C3.528 8.91748 5.08246 10.472 7 10.472C8.03112 10.472 8.95725 10.0225 9.59315 9.30876C10.0056 10.005 10.7645 10.472 11.632 10.472C12.9394 10.472 14 9.41136 14 8.104V7C14 5.68797 13.7969 3.93811 12.7912 2.50443C11.7573 1.03056 9.95472 0 7 0C3.13263 0 0 3.13263 0 7C0 10.8634 3.06471 14 7 14C7.33137 14 7.6 13.7314 7.6 13.4C7.6 13.0686 7.33137 12.8 7 12.8C3.73529 12.8 1.2 10.2086 1.2 7ZM9.26399 6.80784V7.19207C9.16646 8.35695 8.19008 9.27197 7 9.27197C5.74522 9.27197 4.728 8.25475 4.728 6.99995C4.728 5.74515 5.74522 4.72793 7 4.72793C8.19008 4.72793 9.16646 5.64295 9.26399 6.80784Z" fill="black"/>
</g>
</g>
<defs>
<clipPath id="clip0_156_4690">
<rect width="14" height="14" fill="white"/>
</clipPath>
</defs>
</svg>

<svg xmlns="http://www.w3.org/2000/svg" fill="none" viewBox="0 0 14 14"><g clip-path="url(#a)"><path fill="#000" fill-rule="evenodd" d="M1.2 7c0-3.205 2.595-5.8 5.8-5.8 2.645 0 4.043.901 4.809 1.994.794 1.132.991 2.582.991 3.806v1.104a1.169 1.169 0 0 1-2.336 0v-.866a4 4 0 0 0 0-.476V4.128a.6.6 0 1 0-1.2 0v.24a3.472 3.472 0 1 0 .33 4.941A2.367 2.367 0 0 0 14 8.104V7c0-1.312-.203-3.062-1.209-4.496C11.757 1.031 9.955 0 7 0 3.133 0 0 3.133 0 7c0 3.863 3.065 7 7 7a.6.6 0 1 0 0-1.2c-3.265 0-5.8-2.591-5.8-5.8m8.064-.192v.384a2.272 2.272 0 1 1 0-.384" clip-rule="evenodd"/></g><defs><clipPath id="a"><path fill="#fff" d="M0 0h14v14H0z"/></clipPath></defs></svg>
